src/assets/weapons/hegrenade.svg

<svg viewBox="0 0 14.98 19.683" xmlns="http://www.w3.org/2000/svg">
 <g transform="translate(-97.587 -164.03)">
  <g transform="matrix(.2221 0 0 .2221 93.682 157.43)">
   <path d="m58 37.881c0 0.484-4.328 1.07-9.618 1.301-8.009 0.35-9.852 0.74-11.014 2.329-1.806 2.471-1.304 3.796 1.706 4.504 2.273 0.534 2.471 1.134 3.146 9.528 0.397 4.926 0.545 9.463 0.33 10.082-0.215 0.618-2.419 1.428-4.897 1.8-9.454 1.417-14.653 7.828-14.653 18.066 0 11.72 3.942 18.866 12.798 23.198 4.647 2.274 6.856 2.711 13.702 2.711 13.721 0 21.708-5.199 25.586-16.654l1.623-4.795 0.689 9.12c0.482 6.392 0.34 9.54-0.477 10.525-0.686 0.825-0.754 1.404-0.166 1.404 2.944 0 3.325-2.896 2.451-18.654l-0.879-15.846-7.62-17c-10.321-23.026-10.045-22.483-11.457-22.492-0.687-4e-3 -1.25 0.388-1.25 0.873m-1.817 25.241c0.301 3.067 0.621 3.3 6.279 4.58 6.431 1.454 10.019 4.057 12.126 8.798 0.734 1.65 1.35 2.325 1.369 1.5s-2.101-5.1-4.711-9.5l-4.746-8-5.317-0.305-5.318-0.304 0.318 3.231" fill-rule="evenodd"/>
  </g>
 </g>
</svg>

<svg xmlns="http://www.w3.org/2000/svg"   viewBox="0 0 100 130" version="1.1" fill="white">
	<path d="M 58 37.881 C 58 38.365, 53.672 38.951, 48.382 39.182 C 40.373 39.532, 38.530 39.922, 37.368 41.511 C 35.562 43.982, 36.064 45.307, 39.074 46.015 C 41.347 46.549, 41.545 47.149, 42.220 55.543 C 42.617 60.469, 42.765 65.006, 42.550 65.625 C 42.335 66.243, 40.131 67.053, 37.653 67.425 C 28.199 68.842, 23 75.253, 23 85.491 C 23 97.211, 26.942 104.357, 35.798 108.689 C 40.445 110.963, 42.654 111.400, 49.500 111.400 C 63.221 111.400, 71.208 106.201, 75.086 94.746 L 76.709 89.951 77.398 99.071 C 77.880 105.463, 77.738 108.611, 76.921 109.596 C 76.235 110.421, 76.167 111, 76.755 111 C 79.699 111, 80.080 108.104, 79.206 92.346 L 78.327 76.500 70.707 59.500 C 60.386 36.474, 60.662 37.017, 59.250 37.008 C 58.563 37.004, 58 37.396, 58 37.881 M 56.183 63.122 C 56.484 66.189, 56.804 66.422, 62.462 67.702 C 68.893 69.156, 72.481 71.759, 74.588 76.500 C 75.322 78.150, 75.938 78.825, 75.957 78 C 75.976 77.175, 73.856 72.900, 71.246 68.500 L 66.500 60.500 61.183 60.195 L 55.865 59.891 56.183 63.122" stroke="none" fill-rule="evenodd"/>
</svg>
